X: 1499
T: Welcome Home   #2
T: failte ro.mad a .baile.
R: reel
%S: s:2 b:11(5+6)
O: Cronin
B: O'Neill's "Music of Ireland" 1850 #1499
Z: transcribed by John B. Walsh, walsh@math.ubc.ca 8/22/96
Z: Compacted via repeats and multiple endings [JC]
M: C|
L: 1/8
K: D
"^A"|: (AG) | FEFG AFD(c | BA)GB AGFD | FEFG A3(g | fd)ec [1 dc :|[2 d2 |]
"^B"|: (de) | fedf edce | dcAB cAG[gE] |[1 fedf edcA | Adce d2 :|[2 FEFG A3(g | fd)ec d2 |]
